Sources/FrostedUI/Resources/Icons.xcassets/logout16.imageset/logout-16.svg

<svg width="16" height="16" viewBox="0 0 16 16" fill="none" xmlns="http://www.w3.org/2000/svg" data-fui-icon="true">
  <path
    d="M6.14551 1.25C7.5659 1.25 8.86478 2.0528 9.5 3.32324L9.6709 3.66504C9.85584 4.03545 9.70531 4.48572 9.33496 4.6709C8.96455 4.85584 8.51428 4.70531 8.3291 4.33496L8.1582 3.99414C7.77707 3.23188 6.99775 2.75 6.14551 2.75H4C2.75736 2.75 1.75 3.75736 1.75 5V11C1.75 12.2426 2.75736 13.25 4 13.25H6.43848C7.30582 13.25 8.062 12.6598 8.27246 11.8184C8.3729 11.4166 8.77987 11.1721 9.18164 11.2725C9.58341 11.3729 9.82785 11.7799 9.72754 12.1816C9.35022 13.6909 7.9942 14.75 6.43848 14.75H4C1.92894 14.75 0.250002 13.0711 0.25 11V5C0.25 2.92893 1.92893 1.25 4 1.25H6.14551ZM12.0312 4.28906C12.3547 4.03031 12.8272 4.0828 13.0859 4.40625L15.5859 7.53125C15.8051 7.80516 15.8051 8.19484 15.5859 8.46875L13.0859 11.5938C12.8272 11.9172 12.3547 11.9697 12.0312 11.7109C11.7078 11.4522 11.6553 10.9797 11.9141 10.6562L13.4395 8.75H6.1875C5.77329 8.75 5.4375 8.41421 5.4375 8C5.4375 7.58579 5.77329 7.25 6.1875 7.25H13.4395L11.9141 5.34375C11.6553 5.0203 11.7078 4.54782 12.0312 4.28906Z"
    fill="currentColor"
  />
</svg>

<svg xmlns="http://www.w3.org/2000/svg" width="16" height="16" fill="none" data-fui-icon="true" viewBox="0 0 16 16"><path fill="currentColor" d="M6.146 1.25c1.42 0 2.719.803 3.354 2.073l.17.342a.75.75 0 0 1-1.34.67l-.172-.34A2.25 2.25 0 0 0 6.146 2.75H4A2.25 2.25 0 0 0 1.75 5v6A2.25 2.25 0 0 0 4 13.25h2.438a1.89 1.89 0 0 0 1.834-1.432.75.75 0 0 1 1.456.364 3.39 3.39 0 0 1-3.29 2.568H4A3.75 3.75 0 0 1 .25 11V5A3.75 3.75 0 0 1 4 1.25zm5.885 3.04a.75.75 0 0 1 1.055.116l2.5 3.125a.75.75 0 0 1 0 .938l-2.5 3.125a.75.75 0 0 1-1.172-.938L13.44 8.75H6.188a.75.75 0 0 1 0-1.5h7.252l-1.526-1.906a.75.75 0 0 1 .117-1.055"/></svg>
